U-commodities/img/icons/cloud.svg

<svg width="50" height="50" viewBox="0 0 50 50" fill="none" xmlns="http://www.w3.org/2000/svg">
<path d="M38.8602 45.5H14.2201C8.86025 45.5 4.5 41.1384 4.5 35.7799C4.5 29.9555 9.72643 25.1521 15.5401 25.9449C18.2227 21.3311 21.7261 19.181 26.5402 19.181C34.0195 19.181 39.0991 26.0023 39.3313 32.5407C42.8788 32.7569 45.5 35.4022 45.5 38.8589C45.5 42.5838 42.5838 45.5 38.8602 45.5ZM36.8249 44.5391H38.8589C42.0433 44.5391 44.5377 42.0446 44.5377 38.8602C44.5377 35.7478 42.1501 33.4896 38.8589 33.4896C38.5933 33.4896 38.3784 33.2747 38.3784 33.0091C38.3784 26.7964 33.6217 20.1433 26.5402 20.1433C22.0091 20.1433 18.7285 22.2293 16.2128 26.707C16.1127 26.8832 15.9138 26.9806 15.7123 26.9446C10.355 26.0383 5.4596 30.42 5.4596 35.7812C5.4596 40.6112 9.38877 44.5391 14.2188 44.5391H15.8444V41.0156C15.8444 40.75 16.0593 40.5352 16.3249 40.5352H20.3288C20.5944 40.5352 20.8092 40.75 20.8092 41.0156V44.5391H31.86V41.0156C31.86 40.75 32.0749 40.5352 32.3405 40.5352H36.3444C36.61 40.5352 36.8249 40.75 36.8249 41.0156V44.5391ZM32.821 44.5391H35.8626V41.4961H32.821V44.5391ZM16.8053 44.5391H19.8483V41.4961H16.8053V44.5391ZM27.6693 36.1576H23.6654C23.3998 36.1576 23.1849 35.9427 23.1849 35.6771V31.6732C23.1849 31.4076 23.3998 31.1927 23.6654 31.1927H27.6693C27.9349 31.1927 28.1497 31.4076 28.1497 31.6732V35.6771C28.1497 35.9427 27.9349 36.1576 27.6693 36.1576ZM24.1458 35.1966H27.1888V32.1536H24.1458V35.1966ZM20.3288 36.1576H16.3249C16.0593 36.1576 15.8444 35.9427 15.8444 35.6771V31.6732C15.8444 31.4076 16.0593 31.1927 16.3249 31.1927H20.3288C20.5944 31.1927 20.8092 31.4076 20.8092 31.6732V35.6771C20.8092 35.9427 20.5944 36.1576 20.3288 36.1576ZM16.8053 35.1966H19.8483V32.1536H16.8053V35.1966ZM45.0195 25.4805H41.0156C40.75 25.4805 40.5352 25.2656 40.5352 25V20.9961C40.5352 20.7305 40.75 20.5156 41.0156 20.5156H45.0195C45.2851 20.5156 45.5 20.7305 45.5 20.9961V25C45.5 25.2656 45.2851 25.4805 45.0195 25.4805ZM41.4961 24.5195H44.5377V21.4766H41.4961V24.5195ZM35.6771 17.4727H31.6732C31.4076 17.4727 31.1927 17.2578 31.1927 16.9922V12.9883C31.1927 12.7227 31.4076 12.5078 31.6732 12.5078H35.6771C35.9427 12.5078 36.1576 12.7227 36.1576 12.9883V16.9922C36.1576 17.2578 35.9427 17.4727 35.6771 17.4727ZM32.1536 16.5117H35.1953V13.4688H32.1536V16.5117ZM8.98438 17.4727H4.98047C4.71488 17.4727 4.5 17.2578 4.5 16.9922V12.9883C4.5 12.7227 4.71488 12.5078 4.98047 12.5078H8.98438C9.24997 12.5078 9.46484 12.7227 9.46484 12.9883V16.9922C9.46484 17.2578 9.24997 17.4727 8.98438 17.4727ZM5.46094 16.5117H8.50391V13.4688H5.46094V16.5117ZM45.0195 9.46484H41.0156C40.75 9.46484 40.5352 9.24997 40.5352 8.98438V4.98047C40.5352 4.71488 40.75 4.5 41.0156 4.5H45.0195C45.2851 4.5 45.5 4.71488 45.5 4.98047V8.98438C45.5 9.24997 45.2851 9.46484 45.0195 9.46484ZM41.4961 8.50391H44.5377V5.46094H41.4961V8.50391ZM19.6615 9.46484H15.6576C15.392 9.46484 15.1771 9.24997 15.1771 8.98438V4.98047C15.1771 4.71488 15.392 4.5 15.6576 4.5H19.6615C19.927 4.5 20.1419 4.71488 20.1419 4.98047V8.98438C20.1419 9.24997 19.927 9.46484 19.6615 9.46484ZM16.138 8.50391H19.181V5.46094H16.138V8.50391Z" fill="#353535"/>
</svg>

<svg width="50" height="50" fill="none" xmlns="http://www.w3.org/2000/svg"><path d="M38.86 45.5H14.22c-5.36 0-9.72-4.362-9.72-9.72 0-5.825 5.226-10.628 11.04-9.835 2.683-4.614 6.186-6.764 11-6.764 7.48 0 12.56 6.821 12.791 13.36 3.548.216 6.169 2.861 6.169 6.318 0 3.725-2.916 6.641-6.64 6.641zm-2.035-.96h2.034c3.184 0 5.679-2.495 5.679-5.68 0-3.112-2.388-5.37-5.68-5.37a.48.48 0 01-.48-.48c0-6.214-4.756-12.867-11.838-12.867-4.53 0-7.811 2.086-10.327 6.564a.48.48 0 01-.5.238C10.354 26.038 5.46 30.42 5.46 35.78c0 4.83 3.929 8.758 8.759 8.758h1.625v-3.523a.48.48 0 01.48-.48h4.005a.48.48 0 01.48.48v3.523H31.86v-3.523a.48.48 0 01.48-.48h4.004a.48.48 0 01.48.48v3.523zm-4.004 0h3.042v-3.044H32.82v3.043zm-16.016 0h3.043v-3.044h-3.043v3.043zm10.864-8.382h-4.004a.48.48 0 01-.48-.48v-4.005a.48.48 0 01.48-.48h4.004a.48.48 0 01.48.48v4.004a.48.48 0 01-.48.48zm-3.523-.961h3.043v-3.043h-3.043v3.043zm-3.817.96h-4.004a.48.48 0 01-.48-.48v-4.004a.48.48 0 01.48-.48h4.004a.48.48 0 01.48.48v4.004a.48.48 0 01-.48.48zm-3.524-.96h3.043v-3.043h-3.043v3.043zM45.02 25.48h-4.004a.48.48 0 01-.48-.48v-4.004a.48.48 0 01.48-.48h4.004a.48.48 0 01.48.48V25a.48.48 0 01-.48.48zm-3.524-.96h3.042v-3.043h-3.042v3.043zm-5.819-7.047h-4.004a.48.48 0 01-.48-.48v-4.005a.48.48 0 01.48-.48h4.004a.48.48 0 01.48.48v4.004a.48.48 0 01-.48.48zm-3.523-.961h3.041v-3.043h-3.041v3.043zm-23.17.96H4.98a.48.48 0 01-.48-.48v-4.004a.48.48 0 01.48-.48h4.004a.48.48 0 01.48.48v4.004a.48.48 0 01-.48.48zm-3.523-.96h3.043v-3.043H5.46v3.043zM45.02 9.465h-4.004a.48.48 0 01-.48-.48V4.98a.48.48 0 01.48-.48h4.004a.48.48 0 01.48.48v4.004a.48.48 0 01-.48.48zm-3.524-.961h3.042V5.46h-3.042v3.043zm-21.835.96h-4.003a.48.48 0 01-.48-.48V4.98a.48.48 0 01.48-.48h4.004a.48.48 0 01.48.48v4.004a.48.48 0 01-.48.48zm-3.523-.96h3.043V5.46h-3.043v3.043z" fill="#353535"/></svg>
